T: Lochiel's Awa' Tae France
M: 4/4
L: 1/8
K: Ador
eA A/A/A e2 dc | B>G G/G/G B<dd<g | e>A A/A/A e2 dc | BGAB gee :|dega bgab | gd d/d/d gddg | dega bgab|ge e/e/e geeg | dfga bgab | gd d/d/d gddg | .b.g.a.e degB | BA A/A/A gee ||
